X:279
T: DIE WOLLUST IN DEN MAYEN
N: Z0277
O: Europa, Mitteleuropa, Deutschland
R: Lyrisches Lied, Romanze
M: 2/4
L: 1/16
K: A
A2 | e3fe2d2 | c4c2
c2 | d3ed2c2 | B4z2
A2 | e3fe2d2 | c4c2
c2 | d3ed2c2 | B4z2
B2 | d3cd2e2 | d3ef2
^d2 | e3fe3^d | e4z2
A2 | e3fe3d | c4c4 |
d4B4 | A4z2

@@@ Tune index: 10037
